package/converter/svg/duotone/circle-l.svg

<svg xmlns="http://www.w3.org/2000/svg" viewBox="0 0 512 512"><!-- Font Awesome Pro 6.0.0-alpha2 by @fontawesome - https://fontawesome.com License - https://fontawesome.com/license (Commercial License) --><defs><style>.fa-secondary{opacity:.4}</style></defs><path d="M256 16C123.451 16 16 123.451 16 256S123.451 496 256 496S496 388.549 496 256S388.549 16 256 16ZM328 384H184C170.75 384 160 373.25 160 360V152C160 138.75 170.75 128 184 128S208 138.75 208 152V336H328C341.25 336 352 346.75 352 360S341.25 384 328 384Z" class="fa-secondary"/><path d="M328 336H208V152C208 138.75 197.25 128 184 128S160 138.75 160 152V360C160 373.25 170.75 384 184 384H328C341.25 384 352 373.25 352 360S341.25 336 328 336Z" class="fa-primary"/></svg>

<svg xmlns="http://www.w3.org/2000/svg" viewBox="0 0 512 512"><!--! Font Awesome Pro 6.6.0 by @fontawesome - https://fontawesome.com License - https://fontawesome.com/license (Commercial License) Copyright 2024 Fonticons, Inc. --><defs><style>.fa-secondary{opacity:.4}</style></defs><path class="fa-secondary" d="M0 256a256 256 0 1 0 512 0A256 256 0 1 0 0 256zM160 152c0-13.3 10.7-24 24-24s24 10.7 24 24l0 184 120 0c13.3 0 24 10.7 24 24s-10.7 24-24 24l-144 0c-13.3 0-24-10.7-24-24l0-208z"/><path class="fa-primary" d="M184 128c13.3 0 24 10.7 24 24l0 184 120 0c13.3 0 24 10.7 24 24s-10.7 24-24 24l-144 0c-13.3 0-24-10.7-24-24l0-208c0-13.3 10.7-24 24-24z"/></svg>
